Tizora/dist/assets/img/about/about-hands.svg

<svg width="123" height="104" viewBox="0 0 123 104" fill="none" xmlns="http://www.w3.org/2000/svg">
<path d="M62.1534 17.3063L43.5497 33.2313C40.4555 35.8719 39.8597 40.625 42.2044 44.0172C44.6836 47.6328 49.5075 48.3438 52.8323 45.6016L71.9166 29.9203C73.2619 28.8234 75.1838 29.0672 76.2408 30.4891C77.2978 31.9109 77.048 33.9422 75.7027 35.0594L71.6859 38.35L105.742 71.5H113.775C118.868 71.5 123 67.1328 123 61.75V35.75C123 30.3672 118.868 26 113.775 26H98.2655L97.5159 25.4922L83.5631 16.0469C80.6227 14.0563 77.1825 13 73.6847 13C69.495 13 65.4206 14.5234 62.1534 17.3063ZM66.5353 42.575L56.5992 50.7406C50.5453 55.7375 41.7623 54.4375 37.2267 47.8563C32.9602 41.6609 34.0364 33.0078 39.6675 28.1938L55.6575 14.5234C53.4281 13.5281 51.0258 13.0203 48.585 13.0203C44.9719 13 41.4548 14.1375 38.4375 16.25L24.6 26H9.225C4.13203 26 0 30.3672 0 35.75V61.75C0 67.1328 4.13203 71.5 9.225 71.5H30.0197L47.5856 88.4406C51.3525 92.0766 57.1758 91.7922 60.6159 87.8109C61.673 86.5719 62.3841 85.1297 62.7492 83.6266L66.0164 86.7953C69.7641 90.4313 75.6066 90.1672 79.0467 86.2063C79.9116 85.2109 80.5458 84.0531 80.9494 82.8547C84.6778 85.4953 89.7516 84.9469 92.8842 81.3313C96.3244 77.3703 96.0745 71.1953 92.3269 67.5594L66.5353 42.575Z" fill="url(#paint0_linear_108_111)"/>
<defs>
<linearGradient id="paint0_linear_108_111" x1="61.5" y1="13" x2="61.5" y2="90.9925" gradientUnits="userSpaceOnUse">
<stop stop-color="#4D463A"/>
<stop offset="1" stop-color="#4D463A" stop-opacity="0.44"/>
</linearGradient>
</defs>
</svg>

<svg width="123" height="104" fill="none" xmlns="http://www.w3.org/2000/svg"><path d="M62.153 17.306L43.55 33.231c-3.094 2.64-3.69 7.394-1.346 10.786 2.48 3.616 7.303 4.327 10.628 1.585L71.917 29.92c1.345-1.097 3.267-.853 4.324.57 1.057 1.42.807 3.452-.538 4.57l-4.017 3.29 34.056 33.15h8.033c5.093 0 9.225-4.367 9.225-9.75v-26c0-5.383-4.132-9.75-9.225-9.75h-15.51l-.75-.508-13.952-9.445A17.625 17.625 0 0073.685 13c-4.19 0-8.264 1.523-11.532 4.306zm4.382 25.269L56.6 50.741c-6.054 4.996-14.837 3.697-19.372-2.885-4.267-6.195-3.19-14.848 2.44-19.662l15.99-13.67a17.318 17.318 0 00-7.072-1.504c-3.613-.02-7.13 1.117-10.148 3.23L24.6 26H9.225C4.132 26 0 30.367 0 35.75v26c0 5.383 4.132 9.75 9.225 9.75H30.02l17.566 16.94c3.767 3.637 9.59 3.352 13.03-.63a10.121 10.121 0 002.133-4.183l3.267 3.168c3.748 3.636 9.59 3.372 13.03-.589a9.968 9.968 0 001.903-3.351c3.729 2.64 8.803 2.092 11.935-1.524 3.44-3.96 3.19-10.136-.557-13.772L66.535 42.575z" fill="url(#paint0_linear_108_111)"/><defs><linearGradient id="paint0_linear_108_111" x1="61.5" y1="13" x2="61.5" y2="90.993" gradientUnits="userSpaceOnUse"><stop stop-color="#4D463A"/><stop offset="1" stop-color="#4D463A" stop-opacity=".44"/></linearGradient></defs></svg>
